!!!!SEGMENT: 074-1c-LW-006.krn
!!!COM: Chopin, Fryderyk
!!!OTL: Remembrance. (Mir aus den augen.)
!!!OPS: Op. 74
!!!PTL: 17 | POLISH SONGS | BY | WITWICKI, ZALESKI, MICKIEWICZ, ETC, | FOR | A SOPRANO OR TENOR VOICE | WITH ACCOMPANIMENT FOR THE | Pianoforte
!!!PPR: Stanley Lucas, Weber & Co.
!!!PPP: London
!!!AGN: Song
!!!NIFC-rismID: BRAK
!!!NIFC-shelfmark: PL-Wbfc 6139/n
!!!OMD: LARGHETTO. M.M. [quarter] = 72.
!!!system-decoration: (s1){(s2,s3)}
**kern	**kern	**dynam	**kern	**text	**dynam
*part2	*part2	*part2	*part1	*part1	*part1
*staff3	*staff2	*	*staff1	*	*
*	*I"PIANO.	*	*I"VOICE.	*	*
*clefF4	*clefG2	*	*clefG2	*	*
*k[]	*k[]	*	*k[]	*	*
*a:	*a:	*	*a:	*	*
*M3/4	*M3/4	*	*M3/4	*	*
*MM72	*MM72	*	*MM72	*	*
*>[A,B,B1,B,B2]	*>[A,B,B1,B,B2]	*>[A,B,B1,B,B2]	*>[A,B,B1,B,B2]	*>[A,B,B1,B,B2]	*>[A,B,B1,B,B2]
*>A	*>A	*>A	*>A	*>A	*>A
=1	=1	=1	=1	=1	=1
*^	*	*	*	*	*
*	*	*^	*	*	*	*
!	!	!	!	!LO:DY:rj	!	!	!
(>4e	4rBB	(>4ee	4re	f	2.r	.	.
4.f	4rBB	4.ff	4re	.	.	.	.
.	4G	.	4cc# 4b-X	.	.	.	.
8e	.	8ee	.	.	.	.	.
=2	=2	=2	=2	=2	=2	=2	=2
8dL	2F	8ddL	2a	.	2.r	.	.
8cJ	.	8ccyXJ	.	.	.	.	.
4B)	.	4b)	.	.	.	.	.
4r	4r	4r	4reyy	.	.	.	.
=3	=3	=3	=3	=3	=3	=3	=3
(>8dL	2E	(>8ddL	2.g#	.	2.r	.	.
8cJ	.	8ccJ	.	.	.	.	.
2B)	.	2b)	.	.	.	.	.
.	[<4D#	.	.	.	.	.	.
=4	=4	=4	=4	=4	=4	=4	=4
2A	4D#X]	2cc	(<8gn^<L	.	2.r	.	.
.	.	.	8fJ	.	.	.	.
.	2E	.	4e	.	.	.	.
4G#	.	4b	4d)	.	.	.	.
*v	*v	*	*	*	*	*	*
*	*v	*v	*	*	*	*
=5	=5	=5	=5	=5	=5
*	*	*	*	*^	*
!	!	!	!LO:TX:a:t=P:w źródle pod angielskim tekstem alternatywna wersja tekstu w języku niemieckim (czcionka italic):problem	!	!	!
!	!	!	!LO:TX:a:Bi:t=appassionato.	!	!	!
!	!	!	!	!	!	!LO:DY:a:rj
2A 2E 2AA\	2a 2e 2c	ff	(>2a	See	Mir	f
4A 4AA\	4a 4e 4c	.	8.e	thee	aus	.
.	.	.	16e	no	den	.
!!LO:LB:g=original
=6	=6	=6	=6	=6	=6	=6
4A 4D\	4a 4f 4d	.	4f	long-	Au-	.
4A 4AA\	4a 4e 4c	.	4e)	-er!	-gen!	.
4r	4r	.	4r	.	.	.
=7	=7	=7	=7	=7	=7	=7
!	!	!LO:DY:rj	!	!	!	!LO:DY:a:rj
2.F 2.FF	8aL 8c	p	(>2a	love	mir	p
.	8A	.	.	.	.	.
.	8a 8d	.	.	.	.	.
.	8B	.	.	.	.	.
.	.	.	16qqbLL/	.	.	.
.	.	.	16qqaJJ	.	.	.
.	8a 8d#	.	8g#	thee	aus	.
.	8cJ	.	8a	no	dem	.
=8	=8	=8	=8	=8	=8	=8
2E 2EE	8aL 8e	.	4cc	long-	Her-	.
.	8c	.	.	.	.	.
.	8g# 8e	.	4b)	-er!	-zen!	.
.	8B	.	.	.	.	.
4r	8f 8d	.	4r	.	.	.
.	8eJ 8B	.	.	.	.	.
=9	=9	=9	=9	=9	=9	=9
!	!	!LO:DY:rj	!	!	!	!LO:DY:a:rj
2A 2E 2AA\	2a 2e 2c	ff	2a	So	So	f
4A 4AA\	4a 4e 4c	.	8.e	wilt	woll-	.
.	.	.	16e	thou	-test	.
=10	=10	=10	=10	=10	=10	=10
4F 4FF	4a 4f 4c 4A	.	(<4f	have	du,	.
[>2C 2CC	2a 2e 2A	.	4e)	it;	...	.
.	.	.	8r	.	.	.
.	.	.	8a	I	ich	.
!!LO:LB:g=original
=11	=11	=11	=11	=11	=11	=11
.	8Aq	.	.	.	.	.
!	!	!	!	!	!	!LO:DY:a:rj
4C]	8aL 8d#	.	4.a	fol-	folg-	p
.	8A	.	.	.	.	.
2BB	8a 8d#	.	.	.	.	.
.	8B	.	(<8a	-low	-te	.
.	.	.	16qqbLL/	.	.	.
.	.	.	16qqaJJ)	.	.	.
.	8a 8f# 8d#	.	8g#	what	dei-	.
.	8BJ	.	8a	thou	-nem	.
=12	=12	=12	=12	=12	=12	=12
2E\	8g#L 8e	.	4cc	will-	Wil-	.
.	8B	.	.	.	.	.
.	8g# 8e	.	4b	-est;	-len;	.
.	8B	.	.	.	.	.
4D\	8gX 8f	.	4r	.	.	.
.	8BJ	.	.	.	.	.
=13	=13	=13	=13	=13	=13	=13
!	!	!LO:DY:rj	!	!	!	!LO:DY:a:rj
2C 2CC	2g 2e 2c 2G	ff	2cc	Yet	doch	ff
4C 4CC	4e 4c 4G	.	8.g	if	wenn	.
.	.	.	16g	thou	du	.
=14	=14	=14	=14	=14	=14	=14
!	!	!	!	!	!LO:TX:t=P:w źródle brak myślnika rozdzielającego sylaby:problem	!
4BB 4BBB	4f 4d- 4A-X	.	4a-X^>	charge	sprä-	.
2BB 2BBB	4f 4dX 4G	.	4g	me	-chest:	.
.	8gL 8f 8d	.	8r	.	.	.
.	8GJ	.	8g	to	„so	.
=15	=15	=15	=15	=15	=15	=15
!	!	!	!	!	!	!LO:HP:a
2.C 2.CC	8ccL 8g 8e	p	(>8gL	learn	lass	<
.	8B-X	.	8cc	.	.	.
.	8cc 8g 8e	.	8b	.	.	[[
!	!	!	!	!	!	!LO:HP:a
.	8B-	.	8ccJ)	.	.	>
.	8cc 8g 8e	.	8.dd	to	uns	.
.	8B-J	.	.	.	.	.
.	.	.	16cc	for-	ver-	]
!!LO:LB:g=original
=16	=16	=16	=16	=16	=16	=16
2.F 2.FF	8ccL 8f	.	2cc	-get	-ges-	.
.	8A	.	.	.	.	.
.	8a 8f	.	.	.	.	.
.	8c	.	.	.	.	.
.	8a	.	4dd	thee,	-sen,"	.
.	8BJ	.	.	.	.	.
=17	=17	=17	=17	=17	=17	=17
2.E 2.EE	8g#L 8d	.	2ee	Bid	nicht	.
.	8B	.	.	.	.	.
.	8g# 8d	.	.	.	.	.
.	8B	.	.	.	.	.
!	!	!	!	!	!LO:TX:t=P:w źródle brak myślnika rozdzielającego sylaby:problem	!
.	8g# 8d	.	8.b	me	könn-	.
.	8BJ	.	.	.	.	.
.	.	.	16b	for-	-test	.
=18	=18	=18	=18	=18	=18	=18
2AA	8aL 8e 8c	.	2cc^>	-get,	du’s,	.
.	8A	.	.	.	.	.
.	8a 8e 8c	.	.	.	.	.
.	8A	.	.	.	.	.
!	!	!LO:HP:b=2	!	!	!	!
8CL	8a 8e 8c	<	4a	when	nicht	.
8DJ	8AJ	.	.	.	.	.
.	.	[	.	.	.	.
=19	=19	=19	=19	=19	=19	=19
!	!	!	!	!	!	!LO:HP:a
[>2.E [<2.EE	8g#L 8d	.	8.g#	thou	könn-	<
.	8B	.	.	.	.	.
.	.	.	16b	the	-te	.
!	!	!	!	!	!	!LO:HP:a
.	8g# 8d	.	4.ff	task	ich’s	[ >
.	8B	.	.	.	.	.
.	8g# 8d	.	.	.	.	.
.	8BJ	.	8ee	ful-	er-	]]
=20	=20	=20	=20	=20	=20	=20
2.E] 2.EE]	8aL 8e 8c	.	4dd	-fill-	-fül-	.
.	8A	.	.	.	.	.
.	8a 8e 8c	.	4cc	-est,	-len,	.
.	8A	.	.	.	.	.
.	8a 8e 8c	.	4r	.	.	.
.	8AJ	.	.	.	.	.
!!LO:PB:g=original
=21	=21	=21	=21	=21	=21	=21
2.E 2.EE	8g#L 8d 8B	.	2ee	Bid	nicht	.
.	8G#	.	.	.	.	.
.	8g# 8e 8B	.	.	.	.	.
.	8G#	.	.	.	.	.
.	8g# 8e 8B	.	8.b	me	könn-	.
.	8G#J	.	.	.	.	.
.	.	.	16b	for-	-test	.
=22	=22	=22	=22	=22	=22	=22
2.E 2.EE	8f#L 8d#.	.	2cc	-get,	du’s,	.
.	8A	.	.	.	.	.
.	8f# 8d#	.	.	.	.	.
.	8A	.	.	.	.	.
.	8fX 8d	.	4a	when	nicht	.
.	8AJ	.	.	.	.	.
=23	=23	=23	=23	=23	=23	=23
!	!LO:TX:b:Bi:t=poco rall&colon;	!	!LO:TX:a:Bi:t=poco rall&colon;	!	!	!
2.E 2.EE	8eL 8c	.	8.e$s	thou	könn-	.
.	8A	.	.	.	.	.
.	.	.	16e	the	-te	.
.	8f 8d 8B	.	4.cc	task	ich’s	.
.	8A	.	.	.	.	.
.	8e 8d 8B	.	.	.	.	.
.	8G#J	.	8b	ful-	er-	.
=24	=24	=24	=24	=24	=24	=24
!	!	!LO:DY:rj	!	!	!	!
4E 4AA	(<8cL 8A	p	4b	-fill-	-fül-	.
.	8e	.	.	.	.	.
4r	8a	.	4a	-est.	-len.	.
.	8ccJ)	.	.	.	.	.
4r	[>4ee	.	4r	.	.	.
*clefG2	*	*	*	*	*	*
*	*	*	*	*v	*v	*
=25	=25	=25	=25	=25	=25
4cc 4e 4A	8eeL]	<	2.r	.	.
.	(>8aa	.	.	.	.
4r	8ccc	.	.	.	.
.	8ddd#J	[	.	.	.
4r	4eee)	.	.	.	.
!!LO:LB:g=original
=26	=26	=26	=26	=26	=26
4r	(>8cccL	>	2.r	.	.
.	8aa	.	.	.	.
4r	8ee	.	.	.	.
.	8cccJ	.	.	.	.
4dd 4g# 4e	4bb)	]	.	.	.
=27	=27	=27	=27	=27	=27
4cc 4a/	(>8eeL	<	2.r	.	.
.	8aa	.	.	.	.
4r	8ccc	.	.	.	.
.	8ddd#J	.	.	.	.
4r	4eee)	[	.	.	.
=28	=28	=28	=28	=28	=28
4r	(>8cccL	>	2.r	.	.
.	8aa	.	.	.	.
4r	8ee	.	.	.	.
.	8cccJ	.	.	.	.
4dd 4g# 4e	4bb)	]	.	.	.
=29	=29	=29	=29	=29	=29
4cc 4a/	(>8eeL	<	2.r	.	.
.	8aa	.	.	.	.
4r	8ccc	.	.	.	.
.	8ddd#J	.	.	.	.
4r	4eee)	[	.	.	.
=30	=30	=30	=30	=30	=30
2.r	(>8cccL	>	2.r	.	.
.	8aa	.	.	.	.
.	8ee	.	.	.	.
.	8ccJ	.	.	.	.
.	4a/)	]	.	.	.
*clefF4	*	*	*	*	*
=31	=31	=31	=31	=31	=31
2.AA 2AAA	2.e 2.c 2.A	.	2.r	.	.
=32	=32	=32	=32	=32	=32
!	!LO:TX:a:t=P:w źródle takt zakończony dwiema pogrubionymi kreskami, po nich zmiana metrum; następnie łamanie systemu:problem	!	!	!	!
2.BB 2.BBB	2.g^< 2.d 2.G	.	2.r	.	.
!!LO:LB:g=original
==33!|:	==33!|:	==33!|:	==33!|:	==33!|:	==33!|:
!!!OMD: Andantino Espressivo.
*>B	*>B	*>B	*>B	*>B	*>B
*M2/4	*M2/4	*	*M2/4	*	*
*	*	*	*	*^	*
*	*	*	*	*	*^	*
*	*	*	*	*	*	*^	*
!	!	!LO:DY:rj	!	!	!	!	!	!LO:DY:a:rj
2C	8gL 8e 8c	p	4g	Look	Where-	Sieh,	An	mf
.	8G	.	.	.	.	.	.	.
.	8g 8e	.	8cc	how	-e'er	wie	je-	.
.	8cJ	.	8b	the	thou	die	-dem	.
=34	=34	=34	=34	=34	=34	=34	=34	=34
2F 2FF	8aL 8f	.	4a$	sha-	art,	Schat-	Ort	.
.	8c	.	.	.	.	.	.	.
.	8a 8f	.	8b	-dows,	and	-ten,	und	.
.	8cJ	.	8cc	when	at	je	zu	.
=35	=35	=35	=35	=35	=35	=35	=35	=35
2BB	8gL 8f 8d	.	(<8.gL	sink-	each	fer-	al-	.
.	8G	.	.	.	.	.	.	.
.	.	.	16aJk)	.	.	.	.	.
.	8g 8f 8d	.	(<8g	-eth	fu-	-ner	-len	.
.	8GJ	.	8a)	the	-ture	die	....	.
=36	=36	=36	=36	=36	=36	=36	=36	=36
2C	8gL 8e 8c	.	(<8.gL	sun-	mo-	Son-	Stun-	.
.	8G	.	.	.	.	.	.	.
.	.	.	16fJk)	.	.	.	.	.
.	8g 8e 8c	.	8e	-light,	-ment,	-ne,	-den,	.
.	8GJ	.	8r	.	.	.	.	.
!!LO:LB:g=original
=37	=37	=37	=37	=37	=37	=37	=37	=37
2C	8gL 8e 8c	.	4g	Far	While	grö-	wo	.
.	8G	.	.	.	.	.	.	.
!	!	!	!	!	!	!	!	!LO:HP:a
.	8f# 8d	.	8.a	o'er	yet	-sser	wir	<
.	8AJ	.	.	.	.	.	.	.
.	.	.	16a	the	thy	und	ver-	.
=38	=38	=38	=38	=38	=38	=38	=38	=38
4BB	8bL 8f# 8d#	.	4b	land-	mem-	grö-	-ei-	.
.	8B	.	.	.	.	.	.	.
4E	8b 8g 8e	.	8b	-scape	-'ry	-sser	-net	.
.	8BJ	.	8cc	re-	love's	zur	in	[
=39	=39	=39	=39	=39	=39	=39	=39	=39
*	*^	*	*	*	*	*	*	*
8qDD/	.	.	.	.	.	.	.	.	.
2D	4b 4g	8BL	.	(>8eeL	-gret-	im-	Er-	Won-	.
.	.	8d	.	8ddJ)	.	.	.	.	.
!	!	!	!	!	!	!	!	!	!LO:HP:a
.	4a 4f#	8c	.	8.a	-ful-	-press	-de	-ne	>
.	.	8dJ	.	.	.	.	.	.	.
.	.	.	.	16b	-ly	re-	sich	und	]
*	*	*	*	*	*	*	*	*	*
=40	=40	=40	=40	=40	=40	=40	=40	=40	=40
2G 2GG	4g	8BL	.	4a	lenght-	-tain-	sen-	Schmer-	.
.	.	8d	.	.	.	.	.	.	.
.	4rdd	8B	.	8g	-en;	-eth,	-ken,	-zen,	.
.	.	8dJ	.	8r	.	.	.	.	.
*	*v	*v	*	*	*	*	*	*	*
!!LO:PB:g=original
=41	=41	=41	=41	=41	=41	=41	=41	=41
2G 2GG	8bL 8g	.	4dd	So	Clear	so	all-	.
.	8d	.	.	.	.	.	.	.
.	8b 8g	.	8.ee	too	shall	wird	-ü-	.
.	8dJ	.	.	.	.	.	.	.
.	.	.	16dd	of	a	auch	-ber	.
=42	=42	=42	=42	=42	=42	=42	=42	=42
2G 2GG	8ccL 8a 8f#	.	4a	thee,	voice	dir,	all	.
.	8d	.	.	.	.	.	.	.
.	8cc 8a 8f#	.	8dd	from	e-	wenn	wird	.
.	8dJ	.	8dd	my	-ver	ich	Er-	.
=43	=43	=43	=43	=43	=43	=43	=43	=43
!	!	!	!	!	!	!	!	!LO:HP:a
4G 4GG	8bL 8g 8fn	.	(>8.cc#	sight	whis-	fern	-in-	<
.	8d	.	.	.	.	.	.	.
.	.	.	16dd)	...	.	....	-ne-	[
!	!	!	!	!	!	!	!	!LO:HP:a
4F 4FF	8b 8g	.	8.ee	as	-per	dei-	-rung	>
.	8dJ	.	.	.	.	.	.	.
.	.	.	16dd	thou	with-	-nem	dir	]
=44	=44	=44	=44	=44	=44	=44	=44	=44
4E 4EE	8ccL 8g	.	4g	part-	-in	Au-	sa-	.
.	8c	.	.	.	.	.	.	.
.	.	.	(<16qqb/LL	.	.	.	.	.
.	.	.	16qqa/JJ	.	.	.	.	.
4D 4DD	8g 8f 8B	.	4g)	-est,	thee,	-ge,	-gen:	.
.	8GJ	.	.	.	.	.	.	.
!!LO:LB:g=original
=45	=45	=45	=45	=45	=45	=45	=45	=45
*^	*	*	*	*	*	*	*	*
!	!	!	!	!	!	!	!	!	!LO:HP:a
2G	4C	8gL 8e 8c\	pp	4g	Deep	Tell-	grö-	hier	<
.	.	8g	.	.	.	.	.	.	.
.	4GG	8gg	.	8.cc	in	-ing	-sser	blieb	.
.	.	8gJ	.	.	.	.	.	.	.
.	.	.	.	16dd	my	how	und	zu-	[
=46	=46	=46	=46	=46	=46	=46	=46	=46	=46
2G	4C	8gL 8e 8c\	.	4ee	soul	faith-	grö-	-rück	.
.	.	8g	.	.	.	.	.	.	.
!	!	!	!	!	!	!	!	!	!LO:HP:a
.	4GG	8gg	.	8.ff	the	-ful	-sser	ein	>
.	.	8gJ	.	.	.	.	.	.	.
.	.	.	.	16ee	re-	my	mein	...	]
=47	=47	=47	=47	=47	=47	=47	=47	=47	=47
2G	4D	8gL 8f 8B\	.	(>8eeL	-mem-	heart	An-	Theil	.
.	.	8g	.	8ddJ)	.	.	.	von	.
.	4GG	8gg	.	(>8b	-brance	still	-ge-	sei-	.
.	.	8gJ	.	8a)	will	re-	.	-nem	.
=48	=48	=48	=48	=48	=48	=48	=48	=48	=48
2G	4D	8gL 8f 8B\	.	4.a	strength-	-main-	-den-	Her-	.
.	.	8g	.	.	.	.	.	.	.
.	4GG	8gg	.	.	.	.	.	.	.
.	.	8gJ	.	8g	-en,	-eth,	-ken,	-zen,	.
*v	*v	*	*	*	*	*	*	*	*
!!LO:LB:g=original
=49	=49	=49	=49	=49	=49	=49	=49	=49
4G 4C	8gL 8e 8c\	.	4g	Deep	Tell-	grö-	hier	.
.	8g	.	.	.	.	.	.	.
!	!	!	!	!	!	!	!	!LO:HP:a
4r	8gg	.	8.cc	in	-ing	-sser	blieb	<
.	8gJ	.	.	.	.	.	.	.
.	.	.	16dd	my	how	und	zu-	[
=50	=50	=50	=50	=50	=50	=50	=50	=50
*	*^	*	*	*	*	*	*	*
!	!	!	!	!	!	!	!	!	!LO:HP:a
8r	8r	8rgyy	.	4ee	soul	faith-	grö-	-rück	>
8eL 8B 8E	4ee	8g#L	<	.	.	.	.	.	.
8e 8c 8A	.	8a	.	(<8ee	the	-ful	-sser	ein	]
8gJ 8d 8G	8ggn	8bJ	[	8dd)	re-	my	mein	...	.
*	*v	*v	*	*	*	*	*	*	*
=51	=51	=51	=51	=51	=51	=51	=51	=51
*	*	*	*^	*	*	*	*	*
8g 8c	8ee 8cc	.	(>4g/	8g\	-mem-	heart	An-	Theil	.
8r	8gL 8e	.	.	8gs$s\	.	.	.	von	.
4G 4GG	8f# 8d#	.	8a)	4ryy	-brance	still	.	sei-	.
.	8fXJ 8dX	.	8b	.	will	re-	-ge-	-nem	.
*	*	*	*v	*v	*	*	*	*	*
=52	=52	=52	=52	=52	=52	=52	=52	=52
!	!	!	!	!LO:TX:t=P:w źródle brak myślnika rozdzielającego sylaby:problem	!	!	!	!
8G 8C	8cc 8e 8c	.	8dd	strength-	-main-	-den-	Her-	.
!	!LO:TX:t=P:"p" na wysokości "legatissimo.":problem	!	!	!	!	!	!	!
!LO:TX:a:Bi:t=legatissimo.	!	!	!	!	!	!	!	!
!	!	!LO:DY:rj	!	!	!	!	!	!
8r	(>8cccL	p	8cc	-en.	-eth.	-ken.	-zen.	.
4r	8ee	.	4r	.	.	.	.	.
.	8aaJ)	.	.	.	.	.	.	.
*clefG2	*	*	*	*	*	*	*	*
*	*	*	*	*	*	*v	*v	*
*	*	*	*	*	*v	*v	*
*	*	*	*	*v	*v	*
!!LO:LB:g=original
=53	=53	=53	=53	=53	=53
!	!	!	!LO:TX:a:t=P:w źródle ostatni system bez pięciolinii partii wokalnej:problem	!	!
(<8aL	(>8ff#L 8cc	.	2r	.	.
8g	8gg 8b	.	.	.	.
8c	8ee 8b-X	.	.	.	.
8fJ)	8ffXJ 8a)	.	.	.	.
=54	=54	=54	=54	=54	=54
(<8f#L	8dd#L 8a	.	2r	.	.
8e	8ee 8g#	.	.	.	.
8A	8cc 8gX	.	.	.	.
8dJ)	8ddnJ 8f#	.	.	.	.
*clefF4	*	*	*	*	*
=55	=55	=55	=55	=55	=55
*	*^	*	*	*	*
(>8G#L	8b	8fnL	.	2r	.	.
8A	4cc	8eJ	.	.	.	.
8F	.	4d	.	.	.	.
8GXJ)	8b 8f	.	.	.	.	.
*	*v	*v	*	*	*	*
=56	=56	=56	=56	=56	=56
!!LO:TX:a:iB:t=1.
*>B1	*>B1	*>B1	*>B1	*>B1	*>B1
4C 4CC	8cc 8eL	.	2r	.	.
.	8G	.	.	.	.
4rC	8g 8e 8c	.	.	.	.
.	8GJ	.	.	.	.
=57:|!	=57:|!	=57:|!	=57:|!	=57:|!	=57:|!
!!LO:TX:a:iB:t=2.
*>B2	*>B2	*>B2	*>B2	*>B2	*>B2
2G 2C	2cc 2e	.	2r	.	.
==	==	==	==	==	==
*-	*-	*-	*-	*-	*-
!!title: @{OTL}; @{OPS} @{ONM} publisher: @{PPR}
!!!RDF**kern: > = above
!!!RDF**kern: < = below
!!!RDF**kern: N = linked
!!!RDF**dynam: > = "dim:", fontstyle="bold-italic"
!!!RDF**dynam: < = "cresc:", fontstyle="bold-italic"
!!!ENC: Wojciech Jakubiak-Danek
!!!END: 2020-02-10
!!!EED: Emilia Ziętek
!!!EST: 2020-02-24
!!!rism-genre: Remembrance
!!!rism-key: A minor
!!!rism-opus: Op. 74, No. 6
!!!rism-title: Remembrance in A minor Op. 74 No. 6
